svgs/light/ruler-vertical.svg

<svg xmlns="http://www.w3.org/2000/svg" viewBox="0 0 256 512"><!-- Font Awesome Pro 6.0.0-alpha2 by @fontawesome - https://fontawesome.com License - https://fontawesome.com/license (Commercial License) --><path d="M208 0H48C21.49 0 0 21.49 0 48V464C0 490.51 21.49 512 48 512H208C234.51 512 256 490.51 256 464V48C256 21.49 234.51 0 208 0ZM224 96H160C151.156 96 144 103.156 144 112S151.156 128 160 128H224V192H160C151.156 192 144 199.156 144 208S151.156 224 160 224H224V288H160C151.156 288 144 295.156 144 304S151.156 320 160 320H224V384H160C151.156 384 144 391.156 144 400S151.156 416 160 416H224V464C224 472.822 216.822 480 208 480H48C39.178 480 32 472.822 32 464V48C32 39.178 39.178 32 48 32H208C216.822 32 224 39.178 224 48V96Z"/></svg>

<svg xmlns="http://www.w3.org/2000/svg" viewBox="0 0 256 512"><!--! Font Awesome Pro 6.4.0 by @fontawesome - https://fontawesome.com License - https://fontawesome.com/license (Commercial License) Copyright 2023 Fonticons, Inc. --><path d="M192 32c17.7 0 32 14.3 32 32V96H160c-8.8 0-16 7.2-16 16s7.2 16 16 16h64v64H160c-8.8 0-16 7.2-16 16s7.2 16 16 16h64v64H160c-8.8 0-16 7.2-16 16s7.2 16 16 16h64v64H160c-8.8 0-16 7.2-16 16s7.2 16 16 16h64v32c0 17.7-14.3 32-32 32H64c-17.7 0-32-14.3-32-32V64c0-17.7 14.3-32 32-32H192zM64 0C28.7 0 0 28.7 0 64V448c0 35.3 28.7 64 64 64H192c35.3 0 64-28.7 64-64V64c0-35.3-28.7-64-64-64H64z"/></svg>
